X: 24472
T: Lucky's Dream
R: jig
M: 6/8
K: Bminor
Bff fed|cee edc|Bff Bff|fef afe|
Bff fed|cee edc|dcd ede|fBA B3:|
fbb fbb|faa faa|fbb fbb|fef afe|
fbb fbb|faa faa|fef afe|dcA B3:|

